;FLAVOR:Marlin
;TIME:29227
;Filament used: 24.0149m
;Layer height: 0.2
;MINX:2.945
;MINY:106.847
;MINZ:0.2
;MAXX:297.059
;MAXY:193.153
;MAXZ:24
;Generated with Cura_SteamEngine 4.6.0
M140 S80
M105
M190 S80
M104 S200
M105
M109 S200
M82 ;absolute extrusion mode
M201 X500.00 Y500.00 Z100.00 E5000.00 ;Setup machine max acceleration
M203 X500.00 Y500.00 Z10.00 E50.00 ;Setup machine max feedrate
M204 P500.00 R1000.00 T500.00 ;Setup Print/Retract/Travel acceleration
M205 X8.00 Y8.00 Z0.40 E5.00 ;Setup Jerk
M220 S100 ;Reset Feedrate
M221 S100 ;Reset Flowrate

G28 ;Home

G92 E0 ;Reset Extruder
G1 Z2.0 F3000 ;Move Z Axis up
G1 X10.1 Y20 Z0.28 F5000.0 ;Move to start position
G1 X10.1 Y200.0 Z0.28 F1500.0 E15 ;Draw the first line
G1 X10.4 Y200.0 Z0.28 F5000.0 ;Move to side a little
G1 X10.4 Y20 Z0.28 F1500.0 E30 ;Draw the second line
G92 E0 ;Reset Extruder
G1 Z2.0 F3000 ;Move Z Axis up

G92 E0
G92 E0
G1 F2700 E-5
;LAYER_COUNT:120
;LAYER:0
M107
G0 F6000 X89.996 Y108.664 Z0.2
;TYPE:SKIRT
G1 F2700 E0
G1 F1200 X90.627 Y108.188 E0.02629
G1 X91.302 Y107.779 E0.05254
G1 X92.016 Y107.441 E0.07881
G1 X92.76 Y107.176 E0.10508
G1 X93.526 Y106.987 E0.13132
G1 X94.309 Y106.878 E0.15762
G1 X95 Y106.847 E0.18062
G1 X205 Y106.847 E3.83924
G1 X205.789 Y106.887 E3.86551
G1 X206.569 Y107.006 E3.89176
G1 X207.334 Y107.204 E3.91804
G1 X208.074 Y107.478 E3.94428
G1 X208.783 Y107.826 E3.97055
G1 X209.454 Y108.244 E3.99685
G1 X210.01 Y108.669 E4.02012
G1 X210.288 Y108.902 E4.03219
G1 X210.292 Y108.905 E4.03235
G1 X293.727 Y178.914 E7.65491
G1 X293.764 Y178.946 E7.65654
G1 X294.282 Y179.381 E7.67903
G1 X294.86 Y179.919 E7.7053
G1 X295.381 Y180.512 E7.73155
G1 X295.839 Y181.155 E7.75781
G1 X296.23 Y181.842 E7.7841
G1 X296.549 Y182.564 E7.81035
G1 X296.794 Y183.315 E7.83663
G1 X296.961 Y184.086 E7.86287
G1 X297.05 Y184.871 E7.88914
G1 X297.059 Y185.661 E7.91542
G1 X296.988 Y186.447 E7.94167
G1 X296.838 Y187.223 E7.96796
G1 X296.61 Y187.979 E7.99422
G1 X296.307 Y188.708 E8.02048
G1 X295.931 Y189.403 E8.04676
G1 X295.488 Y190.056 E8.073
G1 X294.98 Y190.661 E8.09928
G1 X294.414 Y191.212 E8.12555
G1 X293.796 Y191.702 E8.15178
G1 X293.13 Y192.128 E8.17808
G1 X292.426 Y192.484 E8.20432
G1 X291.688 Y192.767 E8.23061
G1 X290.926 Y192.974 E8.25687
G1 X290.147 Y193.103 E8.28313
G1 X289.265 Y193.153 E8.31251
G1 X10.735 Y193.153 E17.57646
G1 X9.946 Y193.113 E17.60274
G1 X9.166 Y192.994 E17.62898
G1 X8.401 Y192.796 E17.65526
G1 X7.661 Y192.522 E17.68151
G1 X6.952 Y192.174 E17.70778
G1 X6.281 Y191.756 E17.73407
G1 X5.657 Y191.273 E17.76031
G1 X5.084 Y190.73 E17.78657
G1 X4.569 Y190.131 E17.81284
G1 X4.118 Y189.483 E17.8391
G1 X3.734 Y188.792 E17.8654
G1 X3.422 Y188.067 E17.89165
G1 X3.185 Y187.314 E17.9179
G1 X3.026 Y186.54 E17.94419
G1 X2.945 Y185.755 E17.97043
G1 X2.945 Y184.965 E17.99671
G1 X3.024 Y184.179 E18.02298
G1 X3.182 Y183.406 E18.04922
G1 X3.418 Y182.652 E18.0755
G1 X3.728 Y181.926 E18.10176
G1 X4.111 Y181.235 E18.12804
G1 X4.561 Y180.586 E18.1543
G1 X5.075 Y179.986 E18.18058
G1 X5.733 Y179.368 E18.2106
G1 X5.94 Y179.195 E18.21958
G1 X89.349 Y109.207 E21.84102
G1 X89.359 Y109.198 E21.84147
G1 X89.743 Y108.876 E21.85814
G1 X89.996 Y108.664 E21.86911
G0 F6000 X90.253 Y108.97
G1 F1200 X90.868 Y108.508 E21.8947
G1 X91.527 Y108.113 E21.92025
G1 X92.224 Y107.787 E21.94585
G1 X92.951 Y107.536 E21.97143
G1 X93.7 Y107.362 E21.997
G1 X94.464 Y107.266 E22.02261
G1 X95 Y107.247 E22.04045
G1 X205 Y107.247 E25.69907
G1 X205.768 Y107.287 E25.72464
G1 X206.528 Y107.406 E25.75023
G1 X207.271 Y107.604 E25.7758
G1 X207.99 Y107.878 E25.8014
G1 X208.676 Y108.225 E25.82697
G1 X209.323 Y108.641 E25.85255
G1 X209.753 Y108.976 E25.87068
G1 X210.031 Y109.209 E25.88274
G1 X210.035 Y109.211 E25.88289
G1 X293.47 Y179.22 E29.50545
G1 X293.505 Y179.25 E29.50698
G1 X294.025 Y179.687 E29.52957
G1 X294.587 Y180.212 E29.55515
G1 X295.092 Y180.792 E29.58073
G1 X295.534 Y181.421 E29.6063
G1 X295.908 Y182.093 E29.63188
G1 X296.211 Y182.801 E29.65749
G1 X296.438 Y183.535 E29.68305
G1 X296.588 Y184.29 E29.70865
G1 X296.659 Y185.056 E29.73423
G1 X296.65 Y185.825 E29.75981
G1 X296.561 Y186.589 E29.7854
G1 X296.393 Y187.339 E29.81096
G1 X296.149 Y188.069 E29.83656
G1 X295.83 Y188.768 E29.86212
G1 X295.44 Y189.431 E29.8877
G1 X294.983 Y190.05 E29.91329
G1 X294.465 Y190.618 E29.93886
G1 X293.89 Y191.13 E29.96447
G1 X293.265 Y191.579 E29.99006
G1 X292.597 Y191.96 E30.01564
G1 X291.894 Y192.27 E30.04119
G1 X291.161 Y192.506 E30.06681
G1 X290.409 Y192.664 E30.09236
G1 X289.265 Y192.753 E30.13053
G1 X10.735 Y192.753 E39.39447
G1 X9.967 Y192.713 E39.42005
G1 X9.207 Y192.594 E39.44564
G1 X8.464 Y192.396 E39.47121
G1 X7.745 Y192.122 E39.4968
G1 X7.059 Y191.775 E39.52237
G1 X6.412 Y191.359 E39.54796
G1 X5.812 Y190.878 E39.57353
G1 X5.265 Y190.337 E39.59912
G1 X4.777 Y189.742 E39.62472
G1 X4.354 Y189.1 E39.65029
G1 X3.999 Y188.417 E39.67589
G1 X3.718 Y187.702 E39.70144
G1 X3.512 Y186.96 E39.72705
G1 X3.384 Y186.202 E39.75262
G1 X3.335 Y185.434 E39.77822
G1 X3.367 Y184.666 E39.80378
G1 X3.478 Y183.905 E39.82936
G1 X3.668 Y183.159 E39.85497
G1 X3.934 Y182.438 E39.88053
G1 X4.273 Y181.747 E39.90613
G1 X4.682 Y181.096 E39.9317
G1 X5.157 Y180.491 E39.95728
G1 X5.691 Y179.938 E39.98285
G1 X5.99 Y179.675 E39.99609
G1 X6.186 Y179.512 E40.00457
G1 X6.185 Y179.511 E40.00462
G1 X89.606 Y109.513 E43.62658
G1 X89.616 Y109.505 E43.62701
G1 X89.978 Y109.201 E43.64273
G1 X90.253 Y108.97 E43.65468
G0 F6000 X90.509 Y109.277
G1 F1200 X91.108 Y108.829 E43.67956
G1 X91.751 Y108.447 E43.70443
G1 X92.431 Y108.135 E43.72932
G1 X93.141 Y107.898 E43.75421
G1 X93.872 Y107.739 E43.77909
G1 X94.615 Y107.658 E43.80395
G1 X95 Y107.647 E43.81676
G1 X205 Y107.647 E47.47538
G1 X205.747 Y107.687 E47.50026
G1 X206.485 Y107.806 E47.52512
G1 X207.207 Y108.004 E47.55002
G1 X207.903 Y108.277 E47.57489
G1 X208.566 Y108.624 E47.59978
G1 X209.189 Y109.039 E47.62467
G1 X209.496 Y109.282 E47.6377
G1 X209.774 Y109.515 E47.64976
G1 X209.777 Y109.518 E47.6499
G1 X293.212 Y179.527 E51.27246
G1 X293.224 Y179.536 E51.27296
G1 X293.768 Y179.993 E51.29659
G1 X294.314 Y180.504 E51.32146
G1 X294.802 Y181.071 E51.34634
G1 X295.228 Y181.686 E51.37122
G1 X295.585 Y182.343 E51.39609
G1 X295.87 Y183.035 E51.42098
G1 X296.08 Y183.753 E51.44587
G1 X296.212 Y184.489 E51.47074
G1 X296.264 Y185.236 E51.49564
G1 X296.237 Y185.983 E51.5205
G1 X296.129 Y186.724 E51.54541
G1 X295.944 Y187.448 E51.57026
G1 X295.682 Y188.149 E51.59515
G1 X295.347 Y188.818 E51.62004
G1 X294.943 Y189.447 E51.6449
G1 X294.473 Y190.03 E51.66981
G1 X293.945 Y190.559 E51.69467
G1 X293.362 Y191.029 E51.71958
G1 X292.733 Y191.433 E51.74444
G1 X292.065 Y191.769 E51.76931
G1 X291.364 Y192.031 E51.7942
G1 X290.639 Y192.217 E51.8191
G1 X289.899 Y192.324 E51.84396
G1 X289.265 Y192.353 E51.86507
G1 X10.735 Y192.353 E61.12902
G1 X9.988 Y192.313 E61.1539
G1 X9.25 Y192.194 E61.17876
G1 X8.528 Y191.996 E61.20366
G1 X7.832 Y191.723 E61.22853
G1 X7.169 Y191.376 E61.25342
G1 X6.546 Y190.961 E61.27832
G1 X5.972 Y190.482 E61.30318
G1 X5.451 Y189.945 E61.32807
G1 X4.992 Y189.355 E61.35293
G1 X4.597 Y188.719 E61.37783
G1 X4.273 Y188.045 E61.4027
G1 X4.023 Y187.34 E61.42758
G1 X3.849 Y186.612 E61.45248
G1 X3.754 Y185.87 E61.47736
G1 X3.739 Y185.122 E61.50224
G1 X3.803 Y184.377 E61.52711
G1 X3.947 Y183.643 E61.55199
G1 X4.168 Y182.928 E61.57688
G1 X4.465 Y182.241 E61.60177
G1 X4.832 Y181.59 E61.62663
G1 X5.268 Y180.982 E61.65151
G1 X5.765 Y180.423 E61.67639
G1 X6.246 Y179.982 E61.6981
G1 X6.453 Y179.809 E61.70707
G1 X89.793 Y109.88 E65.32549
G1 X89.873 Y109.811 E65.32901
G1 X90.509 Y109.277 E65.35663
G0 F6000 X90.766 Y109.584
G1 F1200 X91.348 Y109.149 E65.3808
G1 X91.974 Y108.781 E65.40495
G1 X92.637 Y108.484 E65.42911
G1 X93.329 Y108.262 E65.45328
G1 X94.04 Y108.117 E65.47742
G1 X95 Y108.047 E65.50943
G1 X205 Y108.047 E69.16805
G1 X205.725 Y108.087 E69.1922
G1 X206.442 Y108.206 E69.21637
G1 X207.141 Y108.404 E69.24053
G1 X207.814 Y108.677 E69.26469
G1 X208.453 Y109.022 E69.28884
G1 X209.24 Y109.589 E69.3211
G1 X209.518 Y109.822 E69.33317
G1 X209.52 Y109.824 E69.33326
G1 X292.955 Y179.833 E72.95582
G1 X293.003 Y179.874 E72.95792
G1 X293.51 Y180.3 E72.97994
G1 X294.04 Y180.797 E73.00411
G1 X294.512 Y181.349 E73.02827
G1 X294.92 Y181.95 E73.05243
G1 X295.26 Y182.592 E73.07659
G1 X295.527 Y183.267 E73.10073
G1 X295.718 Y183.968 E73.1249
G1 X295.831 Y184.685 E73.14904
G1 X295.865 Y185.411 E73.17321
G1 X295.818 Y186.136 E73.19738
G1 X295.693 Y186.851 E73.22152
G1 X295.489 Y187.549 E73.2457
G1 X295.21 Y188.219 E73.26984
G1 X294.859 Y188.855 E73.29401
G1 X294.44 Y189.449 E73.31818
G1 X293.959 Y189.993 E73.34233
G1 X293.421 Y190.48 E73.36647
G1 X292.832 Y190.906 E73.39065
G1 X292.2 Y191.264 E73.41481
G1 X291.533 Y191.551 E73.43896
G1 X290.838 Y191.763 E73.46312
G1 X290.124 Y191.897 E73.48729
G1 X289.265 Y191.953 E73.51592
G1 X10.735 Y191.953 E82.77986
G1 X10.01 Y191.913 E82.80401
G1 X9.293 Y191.794 E82.82819
G1 X8.594 Y191.596 E82.85235
G1 X7.921 Y191.323 E82.87651
G1 X7.282 Y190.978 E82.90066
G1 X6.685 Y190.564 E82.92482
G1 X6.137 Y190.088 E82.94897
G1 X5.644 Y189.554 E82.97314
G1 X5.214 Y188.969 E82.99729
G1 X4.85 Y188.34 E83.02146
G1 X4.557 Y187.675 E83.04563
G1 X4.339 Y186.982 E83.06979
G1 X4.199 Y186.27 E83.09392
G1 X4.138 Y185.546 E83.11809
G1 X4.157 Y184.82 E83.14225
G1 X4.255 Y184.1 E83.16641
G1 X4.432 Y183.396 E83.19056
G1 X4.685 Y182.715 E83.21472
G1 X5.012 Y182.066 E83.23889
G1 X5.408 Y181.457 E83.26305
G1 X5.868 Y180.895 E83.28721
G1 X6.503 Y180.289 E83.3164
G1 X6.71 Y180.116 E83.32537
G1 X90.121 Y110.126 E86.94691
G1 X90.13 Y110.118 E86.94731
G1 X90.766 Y109.584 E86.97493
G0 F6000 X91.023 Y109.891
G1 F1200 X91.587 Y109.471 E86.99832
G1 X92.196 Y109.117 E87.02175
G1 X92.841 Y108.835 E87.04516
G1 X93.514 Y108.628 E87.06858
G1 X94.206 Y108.498 E87.092
G1 X95 Y108.447 E87.11847
G1 X205 Y108.447 E90.77708
G1 X205.703 Y108.487 E90.8005
G1 X206.397 Y108.606 E90.82392
G1 X207.072 Y108.804 E90.84732
G1 X207.721 Y109.076 E90.87072
G1 X208.335 Y109.421 E90.89415
G1 X208.983 Y109.895 E90.92085
G1 X209.261 Y110.128 E90.93291
G1 X209.263 Y110.13 E90.93301
G1 X292.698 Y180.139 E94.55556
G1 X292.742 Y180.177 E94.5575
G1 X293.253 Y180.606 E94.57969
G1 X293.765 Y181.088 E94.60308
G1 X294.22 Y181.626 E94.62651
G1 X294.61 Y182.212 E94.64992
G1 X294.932 Y182.838 E94.67334
G1 X295.181 Y183.497 E94.69677
G1 X295.353 Y184.179 E94.72016
G1 X295.447 Y184.877 E94.74359
G1 X295.461 Y185.581 E94.76701
G1 X295.395 Y186.282 E94.79042
G1 X295.25 Y186.971 E94.81384
G1 X295.028 Y187.639 E94.83726
G1 X294.732 Y188.277 E94.86065
G1 X294.365 Y188.878 E94.88407
G1 X293.933 Y189.434 E94.90749
G1 X293.44 Y189.937 E94.93091
G1 X292.893 Y190.38 E94.95433
G1 X292.3 Y190.759 E94.97773
G1 X291.668 Y191.069 E95.00115
G1 X291.004 Y191.304 E95.02457
G1 X290.318 Y191.463 E95.04799
G1 X289.619 Y191.543 E95.07139
G1 X289.265 Y191.553 E95.08317
G1 X10.735 Y191.553 E104.34712
G1 X10.032 Y191.513 E104.37054
G1 X9.338 Y191.394 E104.39396
G1 X8.663 Y191.196 E104.41735
G1 X8.014 Y190.924 E104.44076
G1 X7.4 Y190.579 E104.46418
G1 X6.829 Y190.168 E104.48758
G1 X6.308 Y189.694 E104.51101
G1 X5.844 Y189.164 E104.53444
G1 X5.444 Y188.585 E104.55785
G1 X5.112 Y187.964 E104.58127
G1 X4.852 Y187.31 E104.60467
G1 X4.668 Y186.63 E104.62811
G1 X4.562 Y185.934 E104.65152
G1 X4.536 Y185.231 E104.67492
G1 X4.59 Y184.529 E104.69834
G1 X4.723 Y183.838 E104.72174
G1 X4.934 Y183.166 E104.74517
G1 X5.219 Y182.522 E104.76859
G1 X5.575 Y181.915 E104.792
G1 X5.998 Y181.352 E104.81542
G1 X6.482 Y180.841 E104.83883
G1 X6.759 Y180.596 E104.85113
G1 X6.966 Y180.423 E104.8601
G1 X90.313 Y110.488 E108.47883
G1 X90.387 Y110.424 E108.48209
G1 X91.023 Y109.891 E108.50968
G0 F6000 X91.279 Y110.198
G1 F1200 X91.826 Y109.792 E108.53234
G1 X92.417 Y109.454 E108.55499
G1 X93.043 Y109.187 E108.57762
G1 X93.697 Y108.995 E108.60029
G1 X94.368 Y108.882 E108.62292
G1 X95 Y108.847 E108.64398
G1 X205 Y108.847 E112.30259
G1 X205.68 Y108.887 E112.32525
G1 X206.35 Y109.006 E112.34788
G1 X207.002 Y109.203 E112.37053
G1 X207.626 Y109.475 E112.39317
G1 X208.214 Y109.819 E112.41583
G1 X208.726 Y110.202 E112.4371
G1 X209.004 Y110.435 E112.44916
G1 X209.006 Y110.437 E112.44926
G1 X292.441 Y180.446 E116.07181
G1 X292.452 Y180.455 E116.07229
G1 X292.996 Y180.912 E116.09592
G1 X293.49 Y181.38 E116.11855
G1 X293.927 Y181.902 E116.14119
G1 X294.299 Y182.473 E116.16386
G1 X294.602 Y183.082 E116.18648
G1 X294.831 Y183.723 E116.20912
G1 X294.984 Y184.387 E116.23179
G1 X295.058 Y185.064 E116.25444
G1 X295.052 Y185.745 E116.27709
G1 X294.966 Y186.42 E116.29972
G1 X294.802 Y187.081 E116.32237
G1 X294.561 Y187.718 E116.34502
G1 X294.247 Y188.322 E116.36766
G1 X293.865 Y188.886 E116.39032
G1 X293.419 Y189.4 E116.41296
G1 X292.916 Y189.859 E116.4356
G1 X292.363 Y190.256 E116.45825
G1 X291.767 Y190.586 E116.4809
G1 X291.137 Y190.843 E116.50353
G1 X290.48 Y191.024 E116.5262
G1 X289.807 Y191.128 E116.54885
G1 X289.265 Y191.153 E116.5669
G1 X10.735 Y191.153 E125.83084
G1 X10.055 Y191.113 E125.8535
G1 X9.385 Y190.994 E125.87613
G1 X8.733 Y190.797 E125.89879
G1 X8.109 Y190.525 E125.92143
G1 X7.521 Y190.181 E125.94408
G1 X6.977 Y189.771 E125.96674
G1 X6.486 Y189.3 E125.98937
G1 X6.052 Y188.775 E126.01203
G1 X5.683 Y188.203 E126.03467
G1 X5.384 Y187.591 E126.05732
G1 X5.159 Y186.949 E126.07995
G1 X5.01 Y186.284 E126.10261
G1 X4.941 Y185.607 E126.12525
G1 X4.951 Y184.926 E126.1479
G1 X5.041 Y184.251 E126.17055
G1 X5.209 Y183.592 E126.19317
G1 X5.453 Y182.956 E126.21582
G1 X5.771 Y182.354 E126.23847
G1 X6.156 Y181.793 E126.2611
G1 X6.605 Y181.28 E126.28377
G1 X7.016 Y180.903 E126.30232
G1 X7.214 Y180.737 E126.31092
G1 X90.635 Y110.739 E129.93288
G1 X90.644 Y110.731 E129.93328
G1 X91.028 Y110.409 E129.94995
G1 X91.053 Y110.387 E129.95106
G1 X91.279 Y110.198 E129.96086
G0 F6000 X91.536 Y110.505
G1 F1200 X92.064 Y110.115 E129.98269
G1 X92.637 Y109.792 E130.00457
G1 X93.244 Y109.541 E130.02641
G1 X93.877 Y109.365 E130.04827
G1 X94.526 Y109.268 E130.07009
G1 X95 Y109.247 E130.08587
G1 X205 Y109.247 E133.74449
G1 X205.656 Y109.287 E133.76635
G1 X206.302 Y109.406 E133.78819
G1 X206.929 Y109.603 E133.81005
G1 X207.527 Y109.875 E133.8319
G1 X208.088 Y110.217 E133.85376
G1 X208.469 Y110.508 E133.8697
G1 X208.747 Y110.741 E133.88177
G1 X208.749 Y110.743 E133.88186
G1 X292.184 Y180.752 E137.50442
G1 X292.194 Y180.761 E137.50486
G1 X292.738 Y181.218 E137.52849
G1 X293.215 Y181.671 E137.55037
G1 X293.633 Y182.178 E137.57223
G1 X293.986 Y182.732 E137.59408
G1 X294.269 Y183.324 E137.6159
G1 X294.479 Y183.947 E137.63777
G1 X294.611 Y184.59 E137.6596
G1 X294.664 Y185.245 E137.68146
G1 X294.637 Y185.902 E137.70333
G1 X294.531 Y186.55 E137.72517
G1 X294.346 Y187.181 E137.74704
G1 X294.087 Y187.784 E137.76886
G1 X293.756 Y188.352 E137.79073
G1 X293.359 Y188.875 E137.81257
G1 X292.901 Y189.346 E137.83442
G1 X292.389 Y189.758 E137.85628
G1 X291.831 Y190.104 E137.87811
G1 X291.235 Y190.381 E137.89997
G1 X290.61 Y190.583 E137.92182
G1 X289.965 Y190.707 E137.94367
G1 X289.265 Y190.753 E137.967
G1 X10.735 Y190.753 E147.23094
G1 X10.079 Y190.713 E147.2528
G1 X9.433 Y190.594 E147.27465
G1 X8.806 Y190.397 E147.29651
G1 X8.208 Y190.125 E147.31836
G1 X7.647 Y189.783 E147.34021
G1 X7.132 Y189.375 E147.36207
G1 X6.67 Y188.908 E147.38391
G1 X6.269 Y188.388 E147.40576
G1 X5.933 Y187.824 E147.42759
G1 X5.669 Y187.222 E147.44945
G1 X5.479 Y186.593 E147.47131
G1 X5.368 Y185.946 E147.49314
G1 X5.335 Y185.29 E147.51499
G1 X5.383 Y184.634 E147.53687
G1 X5.51 Y183.99 E147.5587
G1 X5.714 Y183.365 E147.58056
G1 X5.993 Y182.77 E147.60242
G1 X6.341 Y182.214 E147.62424
G1 X6.755 Y181.703 E147.64611
G1 X7.272 Y181.21 E147.66987
G1 X7.471 Y181.043 E147.67851
G1 X90.892 Y111.045 E151.30048
G1 X90.901 Y111.037 E151.30088
G1 X91.285 Y110.715 E151.31754
G1 X91.536 Y110.505 E151.32843
G0 F6000 X91.792 Y110.811
G1 F1200 X92.302 Y110.437 E151.34946
G1 X92.855 Y110.131 E151.37049
G1 X93.442 Y109.896 E151.39152
G1 X94.054 Y109.737 E151.41255
G1 X94.681 Y109.657 E151.43357
G1 X95 Y109.647 E151.44418
G1 X205 Y109.647 E155.1028
G1 X205.631 Y109.687 E155.12383
