;FLAVOR:Marlin
;TIME:19422
;Filament used: 15.0267m
;Layer height: 0.2
;MINX:38.834
;MINY:101.299
;MINZ:0.2
;MAXX:261.166
;MAXY:186.891
;MAXZ:24
;Generated with Cura_SteamEngine 4.6.0
M140 S80
M105
M190 S80
M104 S200
M105
M109 S200
M82 ;absolute extrusion mode
M201 X500.00 Y500.00 Z100.00 E5000.00 ;Setup machine max acceleration
M203 X500.00 Y500.00 Z10.00 E50.00 ;Setup machine max feedrate
M204 P500.00 R1000.00 T500.00 ;Setup Print/Retract/Travel acceleration
M205 X8.00 Y8.00 Z0.40 E5.00 ;Setup Jerk
M220 S100 ;Reset Feedrate
M221 S100 ;Reset Flowrate

G28 ;Home

G92 E0 ;Reset Extruder
G1 Z2.0 F3000 ;Move Z Axis up
G1 X10.1 Y20 Z0.28 F5000.0 ;Move to start position
G1 X10.1 Y200.0 Z0.28 F1500.0 E15 ;Draw the first line
G1 X10.4 Y200.0 Z0.28 F5000.0 ;Move to side a little
G1 X10.4 Y20 Z0.28 F1500.0 E30 ;Draw the second line
G92 E0 ;Reset Extruder
G1 Z2.0 F3000 ;Move Z Axis up

G92 E0
G92 E0
G1 F2700 E-5
;LAYER_COUNT:120
;LAYER:0
M107
G0 F6000 X44.624 Y139.145 Z0.2
;TYPE:SKIRT
G1 F2700 E0
G1 F1200 X146.956 Y101.899 E3.62201
G1 X147.351 Y101.756 E3.63598
G1 X148.106 Y101.526 E3.66224
G1 X148.881 Y101.373 E3.68851
G1 X149.667 Y101.299 E3.71477
G1 X150.457 Y101.305 E3.74104
G1 X151.242 Y101.391 E3.76731
G1 X152.014 Y101.556 E3.79357
G1 X152.675 Y101.765 E3.81662
G1 X153.034 Y101.896 E3.82933
G1 X153.051 Y101.902 E3.82993
G1 X255.399 Y139.527 E7.45678
G1 X255.413 Y139.532 E7.45727
G1 X256.064 Y139.772 E7.48035
G1 X256.79 Y140.083 E7.50662
G1 X257.481 Y140.465 E7.53288
G1 X258.13 Y140.915 E7.55914
G1 X258.73 Y141.428 E7.5854
G1 X259.275 Y142 E7.61168
G1 X259.76 Y142.623 E7.63794
G1 X260.179 Y143.293 E7.66422
G1 X260.528 Y144.001 E7.69048
G1 X260.804 Y144.741 E7.71674
G1 X261.003 Y145.505 E7.743
G1 X261.124 Y146.285 E7.76926
G1 X261.166 Y147.091 E7.7961
G1 X261.166 Y179.091 E8.86042
G1 X261.126 Y179.88 E8.8867
G1 X261.007 Y180.66 E8.91294
G1 X260.809 Y181.425 E8.93923
G1 X260.535 Y182.165 E8.96547
G1 X260.187 Y182.874 E8.99174
G1 X259.769 Y183.545 E9.01803
G1 X259.286 Y184.169 E9.04428
G1 X258.743 Y184.742 E9.07053
G1 X258.144 Y185.257 E9.09681
G1 X257.496 Y185.708 E9.12307
G1 X256.805 Y186.092 E9.14936
G1 X256.08 Y186.404 E9.17561
G1 X255.327 Y186.641 E9.20187
G1 X254.553 Y186.8 E9.22815
G1 X253.768 Y186.881 E9.2544
G1 X253.366 Y186.891 E9.26777
G1 X46.636 Y186.891 E16.14364
G1 X45.847 Y186.851 E16.16992
G1 X45.067 Y186.732 E16.19616
G1 X44.302 Y186.534 E16.22244
G1 X43.562 Y186.26 E16.24869
G1 X42.853 Y185.912 E16.27496
G1 X42.182 Y185.494 E16.30125
G1 X41.558 Y185.011 E16.32749
G1 X40.985 Y184.468 E16.35375
G1 X40.47 Y183.869 E16.38002
G1 X40.019 Y183.221 E16.40628
G1 X39.635 Y182.53 E16.43258
G1 X39.323 Y181.805 E16.45883
G1 X39.086 Y181.052 E16.48508
G1 X38.927 Y180.278 E16.51137
G1 X38.846 Y179.493 E16.53761
G1 X38.836 Y179.091 E16.55099
G1 X38.834 Y146.714 E17.62785
G1 X38.874 Y145.926 E17.65409
G1 X38.993 Y145.145 E17.68037
G1 X39.191 Y144.381 E17.70662
G1 X39.465 Y143.64 E17.7329
G1 X39.813 Y142.931 E17.75917
G1 X40.23 Y142.261 E17.78541
G1 X40.713 Y141.636 E17.81169
G1 X41.257 Y141.063 E17.83796
G1 X41.856 Y140.549 E17.86422
G1 X42.504 Y140.097 E17.89049
G1 X43.194 Y139.713 E17.91676
G1 X43.976 Y139.381 E17.94501
G1 X44.196 Y139.301 E17.9528
G1 X44.219 Y139.292 E17.95362
G1 X44.595 Y139.156 E17.96692
G1 X44.624 Y139.145 E17.96795
G0 F6000 X44.761 Y139.521
G1 F1200 X147.093 Y102.275 E21.58996
G1 X147.487 Y102.132 E21.60391
G1 X148.223 Y101.909 E21.62948
G1 X148.978 Y101.763 E21.65506
G1 X149.744 Y101.696 E21.68064
G1 X150.513 Y101.71 E21.70622
G1 X151.277 Y101.803 E21.73181
G1 X152.026 Y101.975 E21.75737
G1 X152.538 Y102.14 E21.77527
G1 X152.897 Y102.271 E21.78798
G1 X152.913 Y102.277 E21.78855
G1 X255.261 Y139.902 E25.41539
G1 X255.29 Y139.913 E25.41642
G1 X255.926 Y140.148 E25.43897
G1 X256.633 Y140.451 E25.46455
G1 X257.304 Y140.826 E25.49012
G1 X257.933 Y141.269 E25.51571
G1 X258.513 Y141.774 E25.54129
G1 X259.037 Y142.337 E25.56687
G1 X259.5 Y142.951 E25.59245
G1 X259.896 Y143.61 E25.61802
G1 X260.222 Y144.307 E25.64361
G1 X260.474 Y145.034 E25.6692
G1 X260.649 Y145.783 E25.69478
G1 X260.746 Y146.546 E25.72037
G1 X260.766 Y147.091 E25.7385
G1 X260.766 Y179.091 E26.80283
G1 X260.726 Y179.859 E26.82841
G1 X260.607 Y180.619 E26.85399
G1 X260.409 Y181.362 E26.87957
G1 X260.135 Y182.081 E26.90516
G1 X259.788 Y182.767 E26.93073
G1 X259.372 Y183.414 E26.95631
G1 X258.891 Y184.014 E26.98189
G1 X258.35 Y184.561 E27.00748
G1 X257.755 Y185.049 E27.03307
G1 X257.113 Y185.472 E27.05864
G1 X256.43 Y185.827 E27.08425
G1 X255.715 Y186.108 E27.1098
G1 X254.973 Y186.314 E27.13541
G1 X254.215 Y186.442 E27.16098
G1 X253.366 Y186.491 E27.18926
G1 X46.636 Y186.491 E34.06513
G1 X45.868 Y186.451 E34.09071
G1 X45.108 Y186.332 E34.11629
G1 X44.365 Y186.134 E34.14187
G1 X43.646 Y185.86 E34.16746
G1 X42.96 Y185.513 E34.19303
G1 X42.313 Y185.097 E34.21861
G1 X41.713 Y184.616 E34.24419
G1 X41.166 Y184.075 E34.26978
G1 X40.678 Y183.48 E34.29537
G1 X40.255 Y182.838 E34.32095
G1 X39.9 Y182.155 E34.34655
G1 X39.619 Y181.44 E34.3721
G1 X39.413 Y180.698 E34.39771
G1 X39.285 Y179.94 E34.42328
G1 X39.236 Y179.091 E34.45156
G1 X39.234 Y146.714 E35.52843
G1 X39.274 Y145.946 E35.55401
G1 X39.393 Y145.187 E35.57956
G1 X39.591 Y144.443 E35.60517
G1 X39.865 Y143.724 E35.63076
G1 X40.212 Y143.038 E35.65633
G1 X40.628 Y142.391 E35.68191
G1 X41.109 Y141.791 E35.70749
G1 X41.65 Y141.244 E35.73308
G1 X42.245 Y140.756 E35.75867
G1 X42.887 Y140.333 E35.78424
G1 X43.569 Y139.978 E35.80981
G1 X44.112 Y139.757 E35.82931
G1 X44.333 Y139.677 E35.83713
G1 X44.355 Y139.668 E35.83792
G1 X44.761 Y139.521 E35.85228
G0 F6000 X44.903 Y139.895
G1 F1200 X147.202 Y102.661 E39.47313
G1 X147.623 Y102.508 E39.48803
G1 X148.339 Y102.292 E39.5129
G1 X149.074 Y102.154 E39.53777
G1 X149.82 Y102.094 E39.56267
G1 X150.567 Y102.115 E39.58752
G1 X151.309 Y102.215 E39.61242
G1 X152.035 Y102.394 E39.63729
G1 X152.401 Y102.516 E39.65012
G1 X152.76 Y102.647 E39.66283
G1 X152.775 Y102.653 E39.66337
G1 X255.123 Y140.278 E43.29021
G1 X255.136 Y140.283 E43.29068
G1 X255.787 Y140.523 E43.31375
G1 X256.474 Y140.819 E43.33863
G1 X257.126 Y141.187 E43.36354
G1 X257.735 Y141.621 E43.38841
G1 X258.293 Y142.119 E43.41328
G1 X258.796 Y142.673 E43.43817
G1 X259.236 Y143.278 E43.46305
G1 X259.61 Y143.926 E43.48794
G1 X259.912 Y144.61 E43.51281
G1 X260.139 Y145.323 E43.53769
G1 X260.289 Y146.056 E43.56258
G1 X260.366 Y147.091 E43.5971
G1 X260.366 Y179.091 E44.66142
G1 X260.326 Y179.838 E44.6863
G1 X260.207 Y180.576 E44.71117
G1 X260.009 Y181.298 E44.73607
G1 X259.736 Y181.994 E44.76093
G1 X259.389 Y182.657 E44.78582
G1 X258.974 Y183.28 E44.81072
G1 X258.495 Y183.854 E44.83559
G1 X257.958 Y184.375 E44.86047
G1 X257.368 Y184.834 E44.88533
G1 X256.732 Y185.229 E44.91023
G1 X256.058 Y185.553 E44.93511
G1 X255.353 Y185.803 E44.95999
G1 X254.625 Y185.977 E44.98488
G1 X253.883 Y186.072 E45.00976
G1 X253.366 Y186.091 E45.02697
G1 X46.636 Y186.091 E51.90284
G1 X45.889 Y186.051 E51.92772
G1 X45.151 Y185.932 E51.95258
G1 X44.429 Y185.734 E51.97748
G1 X43.733 Y185.461 E52.00235
G1 X43.07 Y185.114 E52.02724
G1 X42.447 Y184.699 E52.05213
G1 X41.873 Y184.22 E52.077
G1 X41.352 Y183.683 E52.10189
G1 X40.893 Y183.093 E52.12675
G1 X40.498 Y182.457 E52.15165
G1 X40.174 Y181.783 E52.17652
G1 X39.924 Y181.078 E52.2014
G1 X39.75 Y180.35 E52.2263
G1 X39.655 Y179.608 E52.25118
G1 X39.636 Y179.091 E52.26838
G1 X39.634 Y146.714 E53.34525
G1 X39.674 Y145.967 E53.37013
G1 X39.793 Y145.229 E53.39499
G1 X39.991 Y144.507 E53.41989
G1 X40.264 Y143.811 E53.44476
G1 X40.61 Y143.148 E53.46963
G1 X41.025 Y142.526 E53.4945
G1 X41.504 Y141.951 E53.51939
G1 X42.042 Y141.431 E53.54428
G1 X42.632 Y140.971 E53.56916
G1 X43.268 Y140.577 E53.59405
G1 X44.021 Y140.236 E53.62154
G1 X44.029 Y140.23 E53.62187
G1 X44.08 Y140.209 E53.62371
G1 X44.249 Y140.133 E53.62987
G1 X44.459 Y140.057 E53.6373
G1 X44.491 Y140.044 E53.63845
G1 X44.903 Y139.895 E53.65302
G0 F6000 X45.039 Y140.271
G1 F1200 X147.364 Y103.028 E57.27478
G1 X147.412 Y103.01 E57.27648
G1 X147.758 Y102.885 E57.28872
G1 X148.454 Y102.676 E57.31289
G1 X149.169 Y102.545 E57.33707
G1 X149.893 Y102.493 E57.36121
G1 X150.619 Y102.521 E57.38537
G1 X151.337 Y102.629 E57.40952
G1 X152.263 Y102.892 E57.44154
G1 X152.622 Y103.023 E57.45425
G1 X152.637 Y103.028 E57.45478
G1 X254.985 Y140.653 E61.08162
G1 X254.998 Y140.658 E61.08208
G1 X255.649 Y140.898 E61.10516
G1 X256.316 Y141.187 E61.12934
G1 X256.947 Y141.547 E61.1535
G1 X257.534 Y141.974 E61.17764
G1 X258.071 Y142.463 E61.2018
G1 X258.551 Y143.008 E61.22595
G1 X258.969 Y143.602 E61.25011
G1 X259.318 Y144.239 E61.27427
G1 X259.595 Y144.91 E61.29841
G1 X259.797 Y145.608 E61.32258
G1 X259.921 Y146.324 E61.34675
G1 X259.966 Y147.091 E61.3723
G1 X259.966 Y179.091 E62.43663
G1 X259.926 Y179.816 E62.46078
G1 X259.807 Y180.533 E62.48495
G1 X259.609 Y181.232 E62.50912
G1 X259.336 Y181.905 E62.53327
G1 X258.991 Y182.544 E62.55742
G1 X258.577 Y183.141 E62.58159
G1 X258.101 Y183.689 E62.60573
G1 X257.567 Y184.182 E62.6299
G1 X256.982 Y184.612 E62.65405
G1 X256.353 Y184.976 E62.67822
G1 X255.688 Y185.269 E62.70239
G1 X254.995 Y185.487 E62.72655
G1 X254.283 Y185.627 E62.75069
G1 X253.366 Y185.691 E62.78126
G1 X46.636 Y185.691 E69.65713
G1 X45.911 Y185.651 E69.68128
G1 X45.194 Y185.532 E69.70545
G1 X44.495 Y185.334 E69.72962
G1 X43.822 Y185.061 E69.75377
G1 X43.183 Y184.716 E69.77793
G1 X42.586 Y184.302 E69.80209
G1 X42.038 Y183.826 E69.82623
G1 X41.545 Y183.292 E69.85041
G1 X41.115 Y182.707 E69.87455
G1 X40.751 Y182.078 E69.89872
G1 X40.458 Y181.413 E69.92289
G1 X40.24 Y180.72 E69.94706
G1 X40.1 Y180.008 E69.97119
G1 X40.036 Y179.091 E70.00177
G1 X40.034 Y146.714 E71.07863
G1 X40.074 Y145.989 E71.10278
G1 X40.193 Y145.273 E71.12692
G1 X40.391 Y144.574 E71.15108
G1 X40.664 Y143.901 E71.17524
G1 X41.009 Y143.262 E71.19939
G1 X41.422 Y142.664 E71.22356
G1 X41.899 Y142.116 E71.24773
G1 X42.433 Y141.624 E71.27188
G1 X43.018 Y141.193 E71.29605
G1 X43.646 Y140.829 E71.32019
G1 X44.385 Y140.509 E71.34697
G1 X44.596 Y140.433 E71.35443
G1 X44.627 Y140.42 E71.35555
G1 X45.039 Y140.271 E71.37012
G0 F6000 X45.138 Y140.662
G1 F1200 X147.503 Y103.403 E74.99331
G1 X147.548 Y103.386 E74.99491
G1 X147.894 Y103.261 E75.00715
G1 X148.569 Y103.06 E75.03057
G1 X149.262 Y102.936 E75.05399
G1 X149.965 Y102.892 E75.07742
G1 X150.668 Y102.928 E75.10083
G1 X151.362 Y103.043 E75.12423
G1 X152.126 Y103.268 E75.15072
G1 X152.485 Y103.399 E75.16343
G1 X152.499 Y103.404 E75.16392
G1 X254.847 Y141.029 E78.79076
G1 X254.86 Y141.034 E78.79123
G1 X255.511 Y141.274 E78.8143
G1 X256.156 Y141.554 E78.83769
G1 X256.766 Y141.906 E78.86112
G1 X257.332 Y142.325 E78.88454
G1 X257.846 Y142.805 E78.90793
G1 X258.303 Y143.341 E78.93136
G1 X258.697 Y143.925 E78.95479
G1 X259.021 Y144.55 E78.9782
G1 X259.273 Y145.207 E79.00161
G1 X259.448 Y145.889 E79.02503
G1 X259.545 Y146.586 E79.04843
G1 X259.566 Y147.091 E79.06524
G1 X259.566 Y179.091 E80.12957
G1 X259.526 Y179.794 E80.15299
G1 X259.407 Y180.488 E80.17641
G1 X259.209 Y181.163 E80.1998
G1 X258.937 Y181.812 E80.22321
G1 X258.592 Y182.426 E80.24663
G1 X258.181 Y182.997 E80.27003
G1 X257.707 Y183.518 E80.29346
G1 X257.177 Y183.982 E80.31689
G1 X256.598 Y184.382 E80.34029
G1 X255.977 Y184.714 E80.36371
G1 X255.323 Y184.974 E80.38712
G1 X254.643 Y185.158 E80.41055
G1 X253.947 Y185.264 E80.43397
G1 X253.366 Y185.291 E80.45331
G1 X46.636 Y185.291 E87.32918
G1 X45.933 Y185.251 E87.3526
G1 X45.239 Y185.132 E87.37602
G1 X44.564 Y184.934 E87.39942
G1 X43.915 Y184.662 E87.42282
G1 X43.301 Y184.317 E87.44625
G1 X42.73 Y183.906 E87.46965
G1 X42.209 Y183.432 E87.49307
G1 X41.745 Y182.902 E87.5165
G1 X41.345 Y182.323 E87.53991
G1 X41.013 Y181.702 E87.56333
G1 X40.753 Y181.048 E87.58674
G1 X40.569 Y180.368 E87.61017
G1 X40.463 Y179.672 E87.63358
G1 X40.436 Y179.091 E87.65293
G1 X40.434 Y146.714 E88.72979
G1 X40.474 Y146.012 E88.75318
G1 X40.593 Y145.318 E88.7766
G1 X40.79 Y144.642 E88.80002
G1 X41.063 Y143.993 E88.82343
G1 X41.407 Y143.379 E88.84684
G1 X41.819 Y142.808 E88.87026
G1 X42.293 Y142.287 E88.89369
G1 X42.823 Y141.824 E88.9171
G1 X43.402 Y141.423 E88.94052
G1 X44.022 Y141.091 E88.96391
G1 X44.521 Y140.885 E88.98187
G1 X44.75 Y140.802 E88.98997
G1 X44.763 Y140.797 E88.99043
G1 X45.138 Y140.662 E89.00369
G0 F6000 X45.308 Y141.025
G1 F1200 X147.586 Y103.799 E92.62379
G1 X147.684 Y103.762 E92.62727
G1 X148.03 Y103.637 E92.63951
G1 X148.683 Y103.444 E92.66215
G1 X149.354 Y103.328 E92.6848
G1 X150.034 Y103.292 E92.70745
G1 X150.714 Y103.336 E92.73012
G1 X151.383 Y103.459 E92.75274
G1 X151.989 Y103.643 E92.7738
G1 X152.348 Y103.774 E92.78651
G1 X152.361 Y103.779 E92.78698
G1 X254.709 Y141.404 E96.41382
G1 X254.729 Y141.412 E96.41454
G1 X255.372 Y141.649 E96.43733
G1 X255.996 Y141.922 E96.45998
G1 X256.584 Y142.266 E96.48264
G1 X257.127 Y142.676 E96.50527
G1 X257.619 Y143.147 E96.52792
G1 X258.052 Y143.673 E96.55059
G1 X258.42 Y144.245 E96.57321
G1 X258.719 Y144.857 E96.59586
G1 X258.943 Y145.5 E96.61851
G1 X259.092 Y146.164 E96.64114
G1 X259.166 Y147.091 E96.67207
G1 X259.166 Y179.091 E97.7364
G1 X259.126 Y179.771 E97.75905
G1 X259.007 Y180.441 E97.78169
G1 X258.81 Y181.093 E97.80434
G1 X258.538 Y181.717 E97.82698
G1 X258.194 Y182.305 E97.84964
G1 X257.784 Y182.849 E97.8723
G1 X257.313 Y183.34 E97.89492
G1 X256.788 Y183.774 E97.91758
G1 X256.216 Y184.143 E97.94022
G1 X255.604 Y184.442 E97.96287
G1 X254.962 Y184.667 E97.9855
G1 X254.297 Y184.816 E98.00817
G1 X253.366 Y184.891 E98.03923
G1 X46.636 Y184.891 E104.9151
G1 X45.956 Y184.851 E104.93776
G1 X45.286 Y184.732 E104.96039
G1 X44.634 Y184.535 E104.98304
G1 X44.01 Y184.263 E105.00568
G1 X43.422 Y183.919 E105.02834
G1 X42.878 Y183.509 E105.051
G1 X42.387 Y183.038 E105.07363
G1 X41.953 Y182.513 E105.09628
G1 X41.584 Y181.941 E105.11892
G1 X41.285 Y181.329 E105.14158
G1 X41.06 Y180.687 E105.16421
G1 X40.911 Y180.022 E105.18687
G1 X40.836 Y179.091 E105.21794
G1 X40.834 Y146.714 E106.2948
G1 X40.874 Y146.035 E106.31742
G1 X40.993 Y145.364 E106.34009
G1 X41.19 Y144.713 E106.36271
G1 X41.462 Y144.088 E106.38538
G1 X41.806 Y143.5 E106.40804
G1 X42.216 Y142.957 E106.43067
G1 X42.686 Y142.465 E106.4533
G1 X43.211 Y142.031 E106.47596
G1 X43.784 Y141.663 E106.49861
G1 X44.658 Y141.261 E106.5306
G1 X44.887 Y141.178 E106.5387
G1 X44.899 Y141.173 E106.53914
G1 X45.247 Y141.047 E106.55145
G1 X45.308 Y141.025 E106.5536
G0 F6000 X45.447 Y141.4
G1 F1200 X147.718 Y104.176 E110.17346
G1 X147.82 Y104.138 E110.17708
G1 X148.166 Y104.013 E110.18932
G1 X148.797 Y103.828 E110.21119
G1 X149.445 Y103.721 E110.23303
G1 X150.101 Y103.693 E110.25487
G1 X150.756 Y103.745 E110.27672
G1 X151.4 Y103.876 E110.29858
G1 X151.852 Y104.019 E110.31435
G1 X152.211 Y104.15 E110.32706
G1 X152.223 Y104.155 E110.32749
G1 X254.571 Y141.78 E113.95433
G1 X254.583 Y141.784 E113.95476
G1 X255.234 Y142.024 E113.97783
G1 X255.835 Y142.289 E113.99968
G1 X256.4 Y142.624 E114.02153
G1 X256.92 Y143.026 E114.04339
G1 X257.388 Y143.487 E114.06524
G1 X257.795 Y144.002 E114.08707
G1 X258.138 Y144.563 E114.10894
G1 X258.409 Y145.161 E114.13077
G1 X258.606 Y145.788 E114.15263
G1 X258.726 Y146.434 E114.17449
G1 X258.766 Y147.091 E114.19638
G1 X258.766 Y179.091 E115.2607
G1 X258.726 Y179.747 E115.28256
G1 X258.607 Y180.393 E115.30441
G1 X258.41 Y181.02 E115.32627
G1 X258.138 Y181.618 E115.34812
G1 X257.796 Y182.179 E115.36997
G1 X257.388 Y182.694 E115.39183
G1 X256.921 Y183.156 E115.41367
G1 X256.401 Y183.557 E115.43552
G1 X255.837 Y183.893 E115.45735
G1 X255.235 Y184.157 E115.47921
G1 X254.606 Y184.347 E115.50107
G1 X253.959 Y184.458 E115.5229
G1 X253.366 Y184.491 E115.54266
G1 X46.636 Y184.491 E122.41852
G1 X45.98 Y184.451 E122.44038
G1 X45.334 Y184.332 E122.46223
G1 X44.707 Y184.135 E122.48409
G1 X44.109 Y183.863 E122.50594
G1 X43.548 Y183.521 E122.52779
G1 X43.033 Y183.113 E122.54965
G1 X42.571 Y182.646 E122.57149
G1 X42.17 Y182.126 E122.59334
G1 X41.834 Y181.562 E122.61517
G1 X41.57 Y180.96 E122.63703
G1 X41.38 Y180.331 E122.65889
G1 X41.269 Y179.684 E122.68072
G1 X41.236 Y179.091 E122.70048
G1 X41.234 Y146.714 E123.77734
G1 X41.274 Y146.059 E123.79916
